X: 3308
M: 3/4
L: 1/4
K: G
uG |\
(B2g) | (f2e) | dB2- | BGA |\
ud |\
(g2f) | (e2d) | dB2- | BdB |\
(g2f) | (e2^d) | e3 | f3 |\
gfg | age | dB2- | BGA |\


